symbolic/32x32/places/folder-custom-gitlab.svg

<svg xmlns="http://www.w3.org/2000/svg" width="32" height="32" version="1">
 <rect style="opacity:0.2" width="28" height="18" x="2" y="11" rx="1.4" ry="1.4"/>
 <path style="fill:#value_dark" d="M 2,22.6 C 2,23.376 2.6244,24 3.4,24 H 28.6 C 29.376,24 30,23.376 30,22.6 V 7.4 C 30,6.6244 29.376,6 28.6,6 H 16 C 13.9,6 13.2,3 11.1,3 H 3.4 C 2.6244,3 2,3.6244 2,4.4"/>
 <rect style="opacity:0.2" width="28" height="18" x="2" y="9" rx="1.4" ry="1.4"/>
 <rect style="fill:#e4e4e4" width="24" height="11" x="4" y="8" rx="1.4" ry="1.4"/>
 <rect style="fill:#value_light" width="28" height="18" x="2" y="10" rx="1.4" ry="1.4"/>
 <path style="opacity:0.1;fill:#ffffff" d="M 3.4004,3 C 2.6248,3 2,3.6248 2,4.4004 V 5.4004 C 2,4.6248 2.6248,4 3.4004,4 H 11.1 C 13.2,4 13.9,7 16,7 H 28.6 C 29.375,7 30,7.6248 30,8.4004 V 7.4004 C 30,6.6248 29.375,6 28.6,6 H 16 C 13.9,6 13.2,3 11.1,3 Z"/>
 <path style="fill:#323232" d="m 12.242243,13.000109 c -0.09165,0 -0.183406,0.05232 -0.217631,0.157173 L 10.693717,18 H 13.79077 L 12.459874,13.157282 C 12.425634,13.05243 12.333891,13.000109 12.242243,13.000109 Z M 13.79077,18 l 2.209232,6 2.209232,-6 z m 4.418464,0 h 3.097054 l -1.330896,-4.842718 c -0.06844,-0.209709 -0.366781,-0.209709 -0.435262,0 z m 3.097054,0 -5.306286,6 5.811301,-4.201851 c 0.160351,-0.115895 0.227528,-0.321269 0.166292,-0.508834 z m -5.306286,6 -5.306285,-6 -0.671309,1.289315 c -0.061231,0.187565 0.0059,0.392939 0.166293,0.508834 z"/>
</svg>

<svg xmlns="http://www.w3.org/2000/svg" width="32" height="32" version="1"><rect style="opacity:.2" width="28" height="18" x="2" y="11" rx="1.4" ry="1.4"/><path style="fill:#value_dark" d="M2 22.6c0 .776.624 1.4 1.4 1.4h25.2c.776 0 1.4-.624 1.4-1.4V7.4c0-.776-.624-1.4-1.4-1.4H16c-2.1 0-2.8-3-4.9-3H3.4C2.624 3 2 3.624 2 4.4"/><rect style="opacity:.2" width="28" height="18" x="2" y="9" rx="1.4" ry="1.4"/><rect style="fill:#e4e4e4" width="24" height="11" x="4" y="8" rx="1.4" ry="1.4"/><rect style="fill:#value_light" width="28" height="18" x="2" y="10" rx="1.4" ry="1.4"/><path style="opacity:.1;fill:#fff" d="M3.4 3C2.625 3 2 3.625 2 4.4v1C2 4.625 2.625 4 3.4 4h7.7c2.1 0 2.8 3 4.9 3h12.6c.775 0 1.4.625 1.4 1.4v-1c0-.775-.625-1.4-1.4-1.4H16c-2.1 0-2.8-3-4.9-3z"/><path style="fill:#323232" d="M12.242 13a.224.224 0 0 0-.217.157L10.694 18h3.097l-1.331-4.843a.224.224 0 0 0-.218-.157zm1.549 5L16 24l2.21-6zm4.418 0h3.097l-1.33-4.843a.23.23 0 0 0-.436 0zm3.097 0L16 24l5.811-4.202a.454.454 0 0 0 .167-.509zM16 24l-5.306-6-.672 1.29a.454.454 0 0 0 .167.508z"/></svg>
